!!!ONB: MCCC : IWM0407_03 : Extracted Monophonic Melody
!!!COM: Mozart, Wolfgang Amadeus
!!!OPR: Piano Sonata No.7
!!!OMV: 3
!!!SCT: K.309 ; K⁶.284b ; Op.4 No.1
!!!ODT: 1777///
**kern
*thru
*staff1
*clefG2
*k[]
*C:
*M2/4
*MM112
8gg
=1
16ff
16ee
16dd
16cc
8cc
8cc
=2
4.cc
8ccc
=3
16bb
16aa
16gg
16ff
8ff
8ff
=4
4.ff
8aa
=5
16aa
16gg
16ff
16ee
8ee
8gg
=6
16gg
16ff
16ee
16dd
8dd
8ff
=7
16ff
16ee
16dd
16cc
8b
8cc
=8
4ee
8dd
8gg
=9
16ff
16ee
16dd
16cc
8cc
8cc
=10
4.cc
8ccc
=11
16bb
16aa
16gg
16ff
8ff
8ff
=12
4.ff
8aa
=13
16aa
16gg
16ff
16ee
8ee
8gg
=14
16gg
16ff
16ee
16dd
8dd
8ff
=15
16ff
16ee
16ff
16dd
8cc
8b
=16
16aa
16gg
16ff
16ee
16eee
16ccc#
16aa
16gg
=17
16gg
16ff
16ee
16dd
16ddd
16bb
16gg
16ff
=18
16ff
16ee
16aa
16ff
16ee
16gg
16ff
16dd
=19
8cc
8r
16c
16e
16g
16cc
=20
4cc
16ee
16dd
16cc
16dd
=21
8cc
4.r
=22
4ee
16gg
16ff
16ee
16ff
=23
8ee
8r
16cc
16ee
16gg
16ccc
=24
8gg#
16aa
16r
8ff#
16gg
16r
=25
8ee
16ff
16r
8dd#
16ee
16r
=26
16cc#
16dd
16ff
16aa
16gg
16ff
16ee
16dd
=27
8cc
8b
16c
16e
16g
16cc
=28
4cc
16ee
16dd
16cc
16dd
=29
8cc
4.r
=30
4ee
16gg
16ff
16ee
16ff
=31
8ee
8r
16cc
16ee
16gg
16ccc
=32
16gg#
16aa
16aa
16aa
16ff#
16gg
16gg
16gg
=33
16ee
16ff
16ff
16ff
16dd#
16ee
16ee
16ee
=34
8ccc
4aa
[8gg
=35
8gg]
4ff
8ee
=36
8.dd
16ee
8.ff
16gg
=37
8.aa
16bb
8ccc
16r
16ee
=38
[4gg
16gg]
32ff#
32gg
32aa
32gg
32ff
32ee
=39
8dd
8r
8r
8dd
=40
24ddd
24eee
24ddd
24ccc
24bb
24aa
24bb
24ccc
24bb
24aa
24gg
24ff#
=41
*Xtuplet
24gg
24aa
24gg
24ff#
24ee
24dd#
24ee
24ff#
24ee
24dd
24cc
24b
=42
8.cc
32ee
32dd
8cc
16r
16cc
=43
8.cc
32ee-
32dd
8cc
16r
16cc
=44
*tuplet
24ccc
24ddd
24ccc
24bb
24aa
24gg#
*Xtuplet
24aa
24bb
24aa
24gg
24ff#
24ee#
=45
24ff#
24gg
24ff#
24ee
24dd
24cc#
24dd
24ee
24dd
24cc
24b
24a
=46
8.b
32dd
32cc
8b
16r
16b
=47
8.b
32dd
32cc
8b
16r
16dd
=48
*tuplet
24bb
24ddd
24ccc
24bb
24aa
24gg
*Xtuplet
24ff#
24aa
24gg
24bb
24dd#
24ff#
=49
24ee
24gg
24ff#
24ee
24dd
24cc
24b
24dd
24cc
24ee
24g#
24b
=50
24a
24cc
24b
24a
24g
24f#
24e
24g
24f#
24a
24c#
24e
=51
24d
24e
24c#
24d
24e
24c#
24d
24e
24c#
24d
24e
24c#
=52
8d
8cc
8cc
8cc
=53
8cc
8ccc
8ccc
8ccc
=54
8.ccc
16aa
8ff#
8r
=55
16r
16cc
16ccc
16ccc
16ccc
16ccc
16ccc
16ccc
=56
8.ccc
16aa
8ff#
8r
=57
[8ccc
32ccc]
32aa
32ccc
32aa
8ff#
8r
=58
32dd
32ddd
32dd
32ddd
32dd
32ddd
32dd
32ddd
32dd
32ddd
32dd
32ddd
32dd
32ddd
32dd
32ddd
=59
32dd
32ddd
32dd
32ddd
32dd
32ddd
32dd
32ddd
32dd
32ddd
32dd
32ddd
32dd
32ddd
32dd
32ddd
=60
32dd
32ddd
32dd
32ddd
32dd
32ddd
32dd
32ddd
32dd
32ddd
32dd
32ddd
32dd
32ddd
32dd
32ddd
=61
32dd
32ddd
32dd
32ddd
32dd
32ddd
32dd
32ddd
32dd
32ddd
32dd
32ddd
32dd
32ddd
32dd
32ddd
=62
16ddd
16ccc
16bb
16aa
16gg
16ff#
16ee
16dd
=63
16ee
16dd
16cc
16b
16a
16g
16f#
16e
=64
8d
8r
8f#
8r
=65
8g
8r
4r
=66
[4gg
16gg]
16ff#
16gg
16ee
=67
[4dd
16dd]
16cc#
16dd
16b
=68
[4cc
16cc]
16b
16cc
16a
=69
32dd
32ddd
32dd
32ddd
32dd
32ddd
32dd
32ddd
32dd
32ddd
32dd
32ddd
32dd
32ddd
32dd
32ddd
=70
32dd
32ddd
32dd
32ddd
32dd
32ddd
32dd
32ddd
32dd
32ddd
32dd
32ddd
32dd
32ddd
32dd
32ddd
=71
32dd
32ddd
32dd
32ddd
32dd
32ddd
32dd
32ddd
32dd
32ddd
32dd
32ddd
32dd
32ddd
32dd
32ddd
=72
32dd
32ddd
32dd
32ddd
32dd
32ddd
32dd
32ddd
32dd
32ddd
32dd
32ddd
32dd
32ddd
32dd
32ddd
=73
32dd
32ddd
32dd
32ddd
32dd#
32ddd#
32dd#
32ddd#
32dd#
32ddd#
32dd#
32ddd#
32dd#
32ddd#
32dd#
32ddd#
=74
32ee
32eee
32ee
32eee
32b-
32bb-
32b-
32bb-
32b-
32bb-
32b-
32bb-
32b-
32bb-
32b-
32bb-
=75
*tuplet
24bb
24ddd
24bb
24gg
24dd
24b
*Xtuplet
24g
24b
24g
24d
24B
24G
=76
8d
8r
8ff#
8r
=77
8gg:
8r
16g
16a
16b
16cc
=78
8dd
8ee
8dd
8cc#
=79
8cc
8r
8b
8r
=80
8r
8a
8cc
8f#
=81
8g
8r
16gg
16aa
16bb
16ccc
=82
8ddd
8eee
8ddd
8ccc#
=83
8ccc
8r
8bb
8r
=84
8r
8aa
8ccc
8ff#
=85
4gg
8r
8g
=86
4b
8r
8b
=87
4dd
8r
8dd
=88
4ff
8r
8ff
=89
8bb
8ff
8dd
8b
=90
8r
8bb
8ff
8dd
=91
8r
8fff
8ddd
8bb
=92
8r
8ddd
8bb
8ff
=93
16ff
16ee
16dd
16cc
8cc
8cc
=94
4.cc
8ccc
=95
16bb
16aa
16gg
16ff
8ff
8ff
=96
4.ff
8aa
=97
16aa
16gg
16ff
16ee
8ee
8gg
=98
16gg
16ff
16ee
16dd
8dd
8ff
=99
16ff
16ee
16dd
16cc
8b
8cc
=100
4ee
16dd
16ff#
16gg
16ff
=101
16ff
16ee
16dd
16cc
16b
16cc
16dd
16cc
=102
[4cc
16cc]
16gg
16ee
16ccc
=103
16bb
16aa
16gg
16ff
16ee
16ff
16gg
16ff
=104
[4ff
16ff]
16aa
16ccc
16aa
=105
16aa
16gg
16ff
16ee
16ee
16bb-
16aa
16gg
=106
16gg
16ff
16ee
16dd
16dd
16aa
16gg
16ff
=107
16ff
16ee
16ff
16dd
8cc
8b
=108
16gg
16ee
16eee
16eee
16eee
16gg
16aa
16ee
=109
16ff
16dd
16ddd
16ddd
16ddd
16ff
16gg
16dd
=110
16ee
16ccc
16gg#
16aa
16ff#
16gg
16ff
16dd
=111
32cc
32ccc
32cc
32ccc
32cc
32ccc
32cc
32ccc
32cc
32ccc
32cc
32ccc
32cc
32ccc
32cc
32ccc
=112
32cc
32ccc
32cc
32ccc
32cc
32ccc
32cc
32ccc
32cc
32ccc
32cc
32ccc
32cc
32ccc
32cc
32ccc
=113
32cc
32ccc
32cc
32ccc
32cc
32ccc
32cc
32ccc
32cc
32ccc
32cc
32ccc
32cc
32ccc
32cc
32ccc
=114
32cc
32ccc
32cc
32ccc
32cc
32ccc
32cc
32ccc
32cc
32ccc
32cc
32ccc
32cc
32ccc
32cc
32ccc
=115
16cc
16bb
16ccc
16bb
16bb-
16aa
16bb-
16gg
=116
16ff
32ff
32ee
16ff
16gg
16aa
32aa
32gg
16aa
16bb-
=117
8.ccc
16ddd
8bb-
8gg
=118
16ff
32ff
32ee
16ff
16gg
16aa
32aa
32gg
16aa
16bb-
=119
8aa
8gg
16ff
16ee
16dd
16cc
=120
16ff
32ff
32ee
16ff
16gg
16aa
32aa
32gg
16aa
16bb-
=121
8.ccc
16ddd
8bb-
8gg
=122
8.aa
16bb-
8gg
8ee
=123
16ff
16cc
16dd
16a
16b-
16g
16cc
16e
=124
16f
32f
32e
16f
16g
16a
32a
32g
16a
16b-
=125
8.cc
16dd
8b-
8g
=126
16f
32f
32e
16f
16g
16a
32a
32g
16a
16b-
=127
8a
8g
16f
16e
16d
16c
=128
16f
32f
32e
16f
16g
16a
32a
32g
16a
16b-
=129
16cc
32cc
32b-
16cc
16dd
16ee
32ee
32dd
16ee
16ff
=130
16ff
16dd
16ff
16dd
16cc
16a
16b-
16g
=131
8f
8a
8cc
8ee
=132
8ff
4aa
32gg
32ff
32ee
32dd
=133
8cc#
8ee
8gg
8bb-
=134
8ccc#
4eee
32ddd
32ccc#
32bb
32aa
=135
16fff
16aa
16bb
16ddd
16eee
16ff#
16gg
16ccc
=136
16eee
16ddd
4ddd
8ccc
=137
*tuplet
24bb
24ddd
24ccc
24bb
24aa
24gg
*Xtuplet
24ff#
24aa
24gg
24bb
24dd
24ff
=138
24ee
24gg
24ff
24ee
24dd
24cc
24b
24dd
24cc
24ee
24a
24cc
=139
24b
24dd
24cc
24b
24a
24g
24f#
24a
24g
24b
24d
24f
=140
24e
24g
24f
24e
24d
24c
24B
24d
24c
24e
24F#
24A
=141
2r
=142
8r
8r
8r
8g
=143
*tuplet
24gg
24aa
24gg
24ff
24ee
24dd
*Xtuplet
24ee
24ff
24ee
24dd
24cc
24b
=144
24cc
24dd
24cc
24b
24a
24g#
24a
24b
24a
24g
24f
24e
=145
8.f
32a
32g
8f
16r
16f
=146
8.f
32a-
32g
8f
16r
16f
=147
24ff
24gg
24ff
24ee
24dd
24cc#
24dd
24ee
24dd
24cc
24b
24a#
=148
24b
24cc
24b
24a
24g
24f#
24g
24a
24g
24f
24e
24d
=149
8.e
32g
32f
8e
16r
16e
=150
8.e
32g
32f
8e
16r
16gg
=151
*tuplet
24ccc
24ddd
24ccc
24aa
24gg
24ff#
*Xtuplet
24gg
24aa
24gg
24ff#
24ee
24dd
=152
24ee
24ff
24ee
24dd
24cc
24b
24cc
24dd
24cc
24g
24f
24e
=153
8.d
32f
32e
8d
16r
16d
=154
8.d
32f
32e
8d
16r
16dd
=155
24ccc
24ddd
24ccc
24bb
24aa
24gg#
24aa
24bb
24aa
24gg
24ff
24ee
=156
24ff
24gg
24ff
24ee
24dd
24cc#
24dd
24ee
24dd
24cc
24b
24a
=157
8b
8ff
8ff
8ff
=158
8.ff
16dd
8b
8r
=159
16r
16f
16ff
16ff
16ff
16ff
16ff
16ff
=160
8.ff
16dd
8b
8r
=161
[8ff
32ff]
32dd
32ff
32dd
8b
8r
=162
32g
32gg
32g
32gg
32g
32gg
32g
32gg
32g
32gg
32g
32gg
32g
32gg
32g
32gg
=163
32g
32gg
32g
32gg
32g
32gg
32g
32gg
32g
32gg
32g
32gg
32g
32gg
32g
32gg
=164
32g
32gg
32g
32gg
32g
32gg
32g
32gg
32g
32gg
32g
32gg
32g
32gg
32g
32gg
=165
32g
32gg
32g
32gg
32g
32gg
32g
32gg
32g
32gg
32g
32gg
32g
32gg
32g
32gg
=166
16gg
16ff
16ee
16dd
16cc
16b
16a
16g
=167
16aa
16gg
16ff
16ee
16dd
16cc
16b
16a
=168
8g
8r
8b
8r
=169
8cc
8r
4r
=170
[4ccc
16ccc]
16bb
16ccc
16aa
=171
[4gg
16gg]
16ff#
16gg
16ee
=172
[4ff
16ff]
16ee
16ff
16dd
=173
32g
32gg
32g
32gg
32g
32gg
32g
32gg
32g
32gg
32g
32gg
32g
32gg
32g
32gg
=174
32g
32gg
32g
32gg
32g
32gg
32g
32gg
32g
32gg
32g
32gg
32g
32gg
32g
32gg
=175
32g
32gg
32g
32gg
32g
32gg
32g
32gg
32g
32gg
32g
32gg
32g
32gg
32g
32gg
=176
32g
32gg
32g
32gg
32g
32gg
32g
32gg
32g
32gg
32g
32gg
32g
32gg
32g
32gg
=177
32g
32gg
32g
32gg
32g#
32gg#
32g#
32gg#
32g#
32gg#
32g#
32gg#
32g#
32gg#
32g#
32gg#
=178
32a
32aa
32a
32aa
32b-
32bb-
32b-
32bb-
32b-
32bb-
32b-
32bb-
32b-
32bb-
32b-
32bb-
=179
*tuplet
24aa
24bb-
24aa
*Xtuplet
24gg
24aa
24gg
24ff
24gg
24ff
24ee
24ff
24ee
=180
24dd
24ee
24dd
24ee
24ff
24ee
24ff
24gg
24ff
24bb-
24ccc
24bb-
=181
24aa
24bb-
24aa
24gg
24aa
24gg
24ff
24gg
24ff
24ee
24ff
24ee
=182
24dd
24ee
24dd
24ee
24ff
24ee
24ff
24gg
24ff
24bb-
24ccc
24bb-
=183
24aa
24ccc
24bb
24aa
24bb
24ccc
24ff
24aa
24gg
24ff
24gg
24aa
=184
24dd
24ff
24ee
24dd
24ee
24ff
24a
24cc
24b
24a
24b
24cc
=185
24b
24g
24b
24dd
24b
24dd
24gg
24dd
24gg
24bb
24gg
24bb
=186
24ddd
24bb
24ddd
4.fff[
=187
16fff]
16fff
16ddd#
16eee
16ccc#
16ddd
16bb
16ccc
=188
16aa#
16bb
16gg#
16aa
16ff#
16gg
16ff
16gg
=189
16ff
16ee
16dd
16cc
8cc
8cc
=190
4.cc
8ccc
=191
16bb
16aa
16gg
16ff
8ff
8ff
=192
4.ff
8aa
=193
16aa
16gg
16ff
16ee
8ee
16gg
16r
=194
16gg
16ff
16ee
16dd
8dd
16ff
16r
=195
16ff
16ee
16dd
16cc
8b
8cc
=196
4ee
16dd
16gg
16ff#
16ff
=197
16ff
16ee
16dd
16cc
16cc
16cc
16cc
16cc
=198
4.cc
8ccc
=199
16bb
16aa
16gg
16ff
16ff
16ff
16ff
16ff
=200
[4ff
16ff]
16aa
16ccc
16aa
=201
16ff#
16gg
[8eee
16eee]
16gg
16aa
16ee
=202
16gg
16ff#
[8ddd
16ddd]
16ff
16gg
16dd
=203
16ff
16ee
32gg
32ff
32ee
32dd
8cc
8b
=204
*tuplet
24gg
24ee
24gg
24ccc
24gg
24ccc
*Xtuplet
24eee
24ddd
24ccc
24bb-
24aa
24gg
=205
24ff
24gg
24ff
24ee
24dd
24cc
24b
24a
24g
24f
24e
24d
=206
24e
24g
24cc
24a
24f
24d
8c
8d
=207
8c
24ee
24dd
24cc
24b
24dd
24cc
24ee
24g#
24b
=208
24a
24cc
24b
24a
24g
24f
24e
24g
24f
24a
24c#
24e
=209
24d
24f
24e
24d
24c
24B
24A
24c
24B
24d
24F#
24A
=210
8G
8r
16G
16A
16B
16c
=211
8d
8r
16g
16a
16b
16cc
=212
8dd
8r
16b
16cc
16dd
16ee
=213
8ff
8r
16cc
16dd
16ee
16ff
=214
8gg
8aa
8gg
8ff#
=215
8ff
8r
8ee
8r
=216
8r
8dd
8ff
8b
=217
8cc
8r
4r
=218
2r
=219
8r
8bb
8r
8bb-
=220
*tuplet
24r
24aa
24gg#
*Xtuplet
24aa
24ff
24dd
8cc
8dd
=221
32g
32gg
32g
32gg
32g
32gg
32g
32gg
32g
32gg
32g
32gg
32g
32gg
32g
32gg
=222
32g
32gg
32g
32gg
32g
32gg
32g
32gg
32g
32gg
32g
32gg
32g
32gg
32g
32gg
=223
32g
32gg
32g
32gg
32g
32gg
32g
32gg
32g
32gg
32g
32gg
32g
32gg
32g
32gg
=224
32g
32gg
32g
32gg
32g
32gg
32g
32gg
32g
32gg
32g
32gg
32g
32gg
32g
32gg
=225
32g
32gg
32g
32gg
32b-
32bb-
32b-
32bb-
32b-
32bb-
32b-
32bb-
32b-
32bb-
32b-
32bb-
=226
32a
32aa
32a
32aa
32b
32bb
32b
32bb
32b
32bb
32b
32bb
32b
32bb
32b
32bb
=227
32cc
32ccc
32cc
32ccc
32e-
32ee-
32e-
32ee-
32e-
32ee-
32e-
32ee-
32e-
32ee-
32e-
32ee-
=228
*tuplet
24r
24ee
24dd#
24ee
24cc
24g
*Xtuplet
24r
24gg
24ff#
24gg
24ee
24cc
=229
24r
24ccc
24bb
24ccc
24gg
24ee
24r
24eee
24ddd#
24eee
24ccc
24gg
=230
8eee-
8r
8eee-
8r
=231
8eee-
8r
8eee-
8r
=232
32eee
32ddd
32ccc
32bb
32ccc
32bb
32aa
32gg
32aa
32gg
32ff
32ee
32ff
32ee
32dd
32cc
=233
2dd
=234
8cc
8r
16c
16e
16g
16cc
=235
4cc
16ee
16dd
16cc
16dd
=236
8cc
4.r
=237
4ee
16gg
16ff
16ee
16ff
=238
8ee
8r
16g
16cc
16ee
16gg
=239
4gg
8.bb
32aa
32bb
=240
8ccc
*	*tuplet
24gg
24ee
24cc
*	*Xtuplet
24ee
24cc
24g
24bb
24gg
24dd
=241
24ccc
24gg
24ee
24gg
24ee
24cc
24ee
24cc
24g
24bb
24gg
24dd
=242
8ccc
8r
8r
8bb
=243
8ccc
8r
8r
8bb
=244
4ccc
8r
8g
=245
16f
16e
16d
16c
8c
8c
=246
4.c
8cc
=247
16b-
16a
16g
16f
8f
8f
=248
4.f
8a
=249
16g
16f
16e
16d
8d
8d
=250
8.g
16a
16g
16f
16e
16d
=251
16d
16c
8c
8c
8c
=252
4c
8r
==
*-
